X: 18
T: Trip to Cumberland
%R: reel
B: "Twenty Four Country Dances for the Year 1782", Thomas Skillern, ed. p.9 #2
F: http://www.vwml.org/browse/browse-collections-dance-tune-books/browse-skillerns1782#
Z: 2014 John Chambers <jc:trillian.mit.edu>
M: C
L: 1/8
K: F
D |\
FGFD FCCD | cdcA GGGA |\
BABc defd | AcGB AFF :|
|: e |\
fgfc fccf | gage gddg |\
fgag fdcB | AcGB AFF :|
%%begintext align
%%   Hands across and back again Lead
%% down the middle up again and Cast
%% off Allemand with the right hand then
%% the Left and Hands Six round
%%endtext

%%sep 1 1 500
%%sep 1 1 500
